app/images/login.svg

<?xml version="1.0" encoding="UTF-8"?>
<svg width="23px" height="24px" viewBox="0 0 23 24" version="1.1" xmlns="http://www.w3.org/2000/svg" xmlns:xlink="http://www.w3.org/1999/xlink">
    <!-- Generator: Sketch 39.1 (31720) - http://www.bohemiancoding.com/sketch -->
    <title>Page 1 Copy 7</title>
    <desc>Created with Sketch.</desc>
    <defs></defs>
    <g id="Ventas-in-situ" stroke="none" stroke-width="1" fill="none" fill-rule="evenodd">
        <g id="Artboard" transform="translate(-162.000000, -177.000000)" fill="#6E8666">
            <g id="Page-1-Copy-7" transform="translate(162.000000, 177.000000)">
                <path d="M17.709959,16.9985966 L17.709959,16.2595272 C17.709959,15.8508218 17.380111,15.5204577 16.972044,15.5204577 C16.5639771,15.5204577 16.2341291,15.8508218 16.2341291,16.2595272 L16.2341291,16.9985966 L15.4962141,16.9985966 C15.0881471,16.9985966 14.7582992,17.3289606 14.7582992,17.737666 C14.7582992,18.1463714 15.0881471,18.4767354 15.4962141,18.4767354 L16.2341291,18.4767354 L16.2341291,19.2158048 C16.2341291,19.6245102 16.5639771,19.9548742 16.972044,19.9548742 C17.380111,19.9548742 17.709959,19.6245102 17.709959,19.2158048 L17.709959,18.4767354 L18.4478739,18.4767354 C18.8559409,18.4767354 19.1857889,18.1463714 19.1857889,17.737666 C19.1857889,17.3289606 18.8559409,16.9985966 18.4478739,16.9985966 L17.709959,16.9985966 Z" id="Fill-1"></path>
                <path d="M16.972044,21.4330131 C14.9376125,21.4330131 13.2824692,19.7752804 13.2824692,17.737666 C13.2824692,15.7000516 14.9376125,14.0423189 16.972044,14.0423189 C19.0064756,14.0423189 20.6616188,15.7000516 20.6616188,17.737666 C20.6616188,19.7752804 19.0064756,21.4330131 16.972044,21.4330131 M16.972044,11.8251107 C15.1612007,11.8251107 13.5436911,12.6432605 12.460432,13.9285022 L11.9675048,13.7422567 C11.4266131,13.5375345 11.0687244,13.0187078 11.0687244,12.4400164 L11.0687244,11.786679 C11.9593877,11.1096915 12.650814,10.0543003 13.1223417,8.86883299 C13.6499509,8.86883299 14.1104098,8.50964526 14.2380691,7.99599201 L14.5317593,6.81865443 C14.5871029,6.60062895 14.5376626,6.3700393 14.3996725,6.19340171 C14.2616824,6.01602505 14.0499008,5.91255533 13.8255746,5.91255533 C13.8528775,5.61175408 13.8728012,5.31317003 13.8728012,5.02567203 C13.8728012,1.78706985 12.0885228,0 8.85497949,0 C5.62143615,0 3.83715778,1.78706985 3.83715778,5.02567203 C3.83715778,5.31317003 3.85708148,5.61175408 3.88438434,5.91255533 C3.66005819,5.91255533 3.4482766,6.01602505 3.3102865,6.19340171 C3.1722964,6.3700393 3.1228561,6.60062895 3.17819972,6.81865443 L3.47188988,7.99599201 C3.59954916,8.50964526 4.0600081,8.86883299 4.58761729,8.86883299 C5.05914495,10.0543003 5.75057127,11.1096915 6.64123462,11.786679 L6.64123462,12.4400164 C6.64123462,13.0187078 6.28334586,13.5375345 5.7424542,13.7422567 L2.28827428,15.0489314 C0.910587058,15.5692363 0,16.8906924 0,18.3643968 L0,20.6939436 C0,21.5098763 0.661171802,22.1720825 1.47582992,22.1720825 L13.0758531,22.1720825 C14.1163131,23.0892676 15.4770283,23.6502213 16.972044,23.6502213 C20.2328902,23.6502213 22.8753637,21.0036137 22.8753637,17.737666 C22.8753637,14.4717182 20.2328902,11.8251107 16.972044,11.8251107" id="Fill-3"></path>
            </g>
        </g>
    </g>
</svg>

<?xml version="1.0" encoding="utf-8"?>
<!-- Generator: Adobe Illustrator 21.1.0, SVG Export Plug-In . SVG Version: 6.00 Build 0)  -->
<svg version="1.1" id="Capa_1" xmlns="http://www.w3.org/2000/svg" xmlns:xlink="http://www.w3.org/1999/xlink" x="0px" y="0px"
	 viewBox="0 0 23 24" style="enable-background:new 0 0 23 24;" xml:space="preserve">
<style type="text/css">
	.st0{fill:#FFFFFF;}
</style>
<title>Page 1 Copy 7</title>
<desc>Created with Sketch.</desc>
<g id="Ventas-in-situ">
	<g id="Artboard" transform="translate(-162.000000, -177.000000)">
		<g id="Page-1-Copy-7" transform="translate(162.000000, 177.000000)">
			<path id="Fill-1" class="st0" d="M17.7,17v-0.7c0-0.4-0.3-0.7-0.7-0.7s-0.7,0.3-0.7,0.7V17h-0.7c-0.4,0-0.7,0.3-0.7,0.7
				c0,0.4,0.3,0.7,0.7,0.7h0.7v0.7c0,0.4,0.3,0.7,0.7,0.7s0.7-0.3,0.7-0.7v-0.7h0.7c0.4,0,0.7-0.3,0.7-0.7c0-0.4-0.3-0.7-0.7-0.7
				H17.7z"/>
			<path id="Fill-3" class="st0" d="M17,21.4c-2,0-3.7-1.7-3.7-3.7S14.9,14,17,14s3.7,1.7,3.7,3.7S19,21.4,17,21.4 M17,11.8
				c-1.8,0-3.4,0.8-4.5,2.1L12,13.7c-0.5-0.2-0.9-0.7-0.9-1.3v-0.7c0.9-0.7,1.6-1.7,2.1-2.9c0.5,0,1-0.4,1.1-0.9l0.3-1.2
				c0.1-0.2,0-0.4-0.1-0.6C14.3,6,14,5.9,13.8,5.9c0-0.3,0-0.6,0-0.9c0-3.2-1.8-5-5-5s-5,1.8-5,5c0,0.3,0,0.6,0,0.9
				C3.7,5.9,3.4,6,3.3,6.2C3.2,6.4,3.1,6.6,3.2,6.8L3.5,8c0.1,0.5,0.6,0.9,1.1,0.9c0.5,1.2,1.2,2.2,2.1,2.9v0.7
				c0,0.6-0.4,1.1-0.9,1.3L2.3,15C0.9,15.6,0,16.9,0,18.4v2.3c0,0.8,0.7,1.5,1.5,1.5h11.6c1,0.9,2.4,1.5,3.9,1.5
				c3.3,0,5.9-2.6,5.9-5.9S20.2,11.8,17,11.8"/>
		</g>
	</g>
</g>
</svg>
